X:1
T: Hendall's Hornpipe
N:
C:
S:
A:
O:
R:
M:4/4
K:C
I:speed 210
%W: A1
% voice 1 (1 lines, 36 notes)
K:C
M:4/4
L:1/16
g2 |e4 f4 d4 e4 |c4 G8 A4 |B2 A2 B2 c2 d4 e4 |c2 B2 c2 d2 c4 B4 |c2 d2 e2 f2 g4 a4 |^f4 d8 c4 |B4 g4 A4 ^f4 |g4 G8 g4 |
%W: A2
% voice 1 (1 lines, 35 notes)
e4 f4 d4 e4 |c4 G8 A4 |B2 A2 B2 c2 d4 e4 |c2 B2 c2 d2 c4 B4 |c2 d2 e2 f2 g4 a4 |^f4 d8 c4 |B4 g4 A4 ^f4 |g4 G8 g4 |
%W: B1
% voice 1 (1 lines, 28 notes)
a4 f8 a4 |g4 e4 c'4 e4 |f4 d4 g4 d4 |e4 c8 d4 |e4 c4 f4 c4 |e4 c8 d4 |e4 c4 f4 c4 |e4 c8 d4 |
%W:
% voice 1 (1 lines, 27 notes)
e4 c4 f4 e4 |d12 g4 |c'4 c4 a4 c4 |g4 c8 B4 |A4 c4 G4 c4 |F4 d8 F4 |E4 c4 D4 B4 |c4 C8 g4 |
%W: B2
% voice 1 (1 lines, 28 notes)
a4 f8 a4 |g4 e4 c'4 e4 |f4 d4 g4 d4 |e4 c8 d4 |e4 c4 f4 c4 |e4 c8 d4 |e4 c4 f4 c4 |e4 c8 d4 |
%W:
% voice 1 (1 lines, 26 notes)
e4 c4 f4 e4 |d12 g4 |c'4 c4 a4 c4 |g4 c8 B4 |A4 c4 G4 c4 |F4 d8 F4 |E4 c4 D4 B4 |c4 C8 ||
